X: 57
T: Polonäs, sexdregasamlingen del 2 nr 57
S: efter Anders Larsson
B: Sexdregasamlingen del 2 nr 57
O: Sexdrega, Västergötland
R: Slängpolska
Z: 2008-05-31 av Nils L
M: 3/4
L: 1/16
K: Am
a2a2 e2f2 e2d2 | c2B2 A2^G2 A2B2 | c2c2 d2e2 f2g2 | e4 e8 ::
e2f2 g4 c4 | B2c2 d4 B4 | c2d2 e4 A4 | ^G2A2 B4 E4 | e4 a2b2 a2g2 | 
f2e2 f4 d4 | d4 g2a2 g2f2 | e2d2 e4 c4 | e4 f2e2 d2c2 | B2A^G A8 :|

